X: 3801
T: Peggy Dewar
%
P: Viscount Reidhaven
C:Wm. Marshall
R:Reel (8x32)
B:RSCDS 38-1
Z:Anselm Lingnau <anselm@strathspey.org>
M:C|
L:1/8
K:F
"F"c2AB c2AB|cagf "C"ecc2|"Bb"d2Bd "F"c2Ac|"Gm"Gd"C7"cB "F"AFF2|
"F"c2AB c2AB|cagf "C"ecc2|"Bb"d2Bd "F"c2Ac|"Gm"Gd"C7"cB "F"AFF2||
"F"aff2 cfAf|"Bb"defg "F"aff2|"Gm"bgg2 "G"dg=Bg|"C"efga "C7"bgg2|
"F"aff2 cfAf|"Bb"defg "F"afcA|"Gm"BdBd "F"AcAc|"Gm"Gd"C7"cB "F"AFF2|]
%%center Book38/3801-Peggy_Dewar-AL.abc

%%sep 1 1 500
%%sep 1 1 500

